_includes/icons/color-api.svg

<svg fill="#666" height="50" viewBox="0 0 48 48" width="50" xmlns="http://www.w3.org/2000/svg"><path d="m7 8h34c2.210938 0 4 1.789063 4 4v24c0 2.210938-1.789062 4-4 4h-34c-2.210937 0-4-1.789062-4-4v-24c0-2.210937 1.789063-4 4-4" fill="#2196f3"/><path d="m17.039063 28.726563h-4.292969l-.835938 3.273437h-3.328125l4.867188-16h2.882812l4.902344 16h-3.363281zm-3.609375-2.695313h2.914062l-1.457031-5.703125zm12.570312.34375v5.625h-3v-16h5c1.542969 0 2.769531.492188 3.6875 1.472656.917969.980469 1.3125 2.257813 1.3125 3.824219s-.390625 2.804688-1.296875 3.714844c-.90625.90625-2.160156 1.363281-3.765625 1.363281zm0-2.695312h2.117188c.597656 0 1.0625-.199219 1.390625-.601563s.492187-.988281.492187-1.757812c0-.800782-.167969-1.433594-.503906-1.910157-.335938-.46875-.785156-.710937-1.347656-.71875h-2.148438zm12 8.320312h-3v-16h3z" fill="#fff"/></svg>

<svg xmlns="http://www.w3.org/2000/svg" viewBox="0 0 48 48" width="50" height="50" fill="#666"><path d="M 7 8 L 41 8 C 43.210938 8 45 9.789063 45 12 L 45 36 C 45 38.210938 43.210938 40 41 40 L 7 40 C 4.789063 40 3 38.210938 3 36 L 3 12 C 3 9.789063 4.789063 8 7 8" fill="#2196f3"/><path d="M 17.039063 28.726563 L 12.746094 28.726563 L 11.910156 32 L 8.582031 32 L 13.449219 16 L 16.332031 16 L 21.234375 32 L 17.871094 32 Z M 13.429688 26.03125 L 16.34375 26.03125 L 14.886719 20.328125 Z M 26 26.375 L 26 32 L 23 32 L 23 16 L 28 16 C 29.542969 16 30.769531 16.492188 31.6875 17.472656 C 32.605469 18.453125 33 19.730469 33 21.296875 C 33 22.863281 32.609375 24.101563 31.703125 25.011719 C 30.796875 25.917969 29.542969 26.375 27.9375 26.375 Z M 26 23.679688 L 28.117188 23.679688 C 28.714844 23.679688 29.179688 23.480469 29.507813 23.078125 C 29.835938 22.675781 30 22.089844 30 21.320313 C 30 20.519531 29.832031 19.886719 29.496094 19.410156 C 29.160156 18.941406 28.710938 18.699219 28.148438 18.691406 L 26 18.691406 Z M 38 32 L 35 32 L 35 16 L 38 16 Z" fill="#fff"/></svg>
